static/assets/images/networks/optimism.svg

<svg xmlns="http://www.w3.org/2000/svg" fill="none" viewBox="0 0 512 512"><path fill="#FC0423" d="M512 256a256 256 0 0 1-74.981 181.019 255.997 255.997 0 0 1-362.038 0A256 256 0 1 1 512 256"/><path fill="#fff" fill-rule="evenodd" d="M201.216 164.864c45.056 11.776 60.416 71.68 34.304 132.096-29.184 65.024-114.688 71.68-137.216 10.24-11.776-37.888 0-91.136 25.6-118.784 20.992-22.016 51.712-30.72 77.312-23.552m-70.144 104.448c3.584-43.008 16.896-68.608 39.424-73.728 6.656-2.048 17.408-2.048 22.528 1.536 11.776 5.12 16.896 15.36 16.896 37.888 0 49.664-18.944 83.968-48.128 83.968-22.016 0-32.256-16.896-30.72-49.664M371.2 166.4c32.256 4.608 56.32 40.96 42.496 75.264-7.68 20.48-25.6 41.472-79.872 41.472-14.336 0-20.48-2.048-24.576.512-4.096 3.072-4.608 10.752-8.192 31.744-5.632 33.28-6.656 33.28-18.432 32.768h-5.632c-12.288 0-19.456 0-17.408-11.776l27.648-158.208c1.536-8.192 5.12-11.776 10.24-13.312 0 0 41.984-3.072 73.728 1.536m0 37.376c16.384 9.216 10.24 37.888-16.896 46.592-7.68 3.072-16.896 3.072-23.552 2.56-1.024 0 1.024 0 0 0-7.68 0-14.848.512-16.896-1.536-2.56-3.072-1.024-9.728 2.56-26.624-.512 2.56.512-3.584 0 0 5.632-27.648 5.632-27.648 24.576-27.648 15.36 0 22.016 2.048 30.208 6.656" clip-rule="evenodd"/></svg>

<svg width="512" height="512" viewBox="0 0 512 512" fill="none" xmlns="http://www.w3.org/2000/svg">
<path d="M512 256C512 323.895 485.029 389.01 437.019 437.019C389.01 485.029 323.895 512 256 512C188.105 512 122.99 485.029 74.9807 437.019C26.9714 389.01 0 323.895 0 256C0 188.105 26.9714 122.99 74.9807 74.9807C122.99 26.9714 188.105 0 256 0C323.895 0 389.01 26.9714 437.019 74.9807C485.029 122.99 512 188.105 512 256Z" fill="#FC0423"/>
<path fill-rule="evenodd" clip-rule="evenodd" d="M201.216 164.864C246.272 176.64 261.632 236.544 235.52 296.96C206.336 361.984 120.832 368.64 98.304 307.2C86.528 269.312 98.304 216.064 123.904 188.416C144.896 166.4 175.616 157.696 201.216 164.864ZM131.072 269.312C134.656 226.304 147.968 200.704 170.496 195.584C177.152 193.536 187.904 193.536 193.024 197.12C204.8 202.24 209.92 212.48 209.92 235.008C209.92 284.672 190.976 318.976 161.792 318.976C139.776 318.976 129.536 302.08 131.072 269.312ZM371.2 166.4C403.456 171.008 427.52 207.36 413.696 241.664C406.016 262.144 388.096 283.136 333.824 283.136C319.488 283.136 313.344 281.088 309.248 283.648C305.152 286.72 304.64 294.4 301.056 315.392C295.424 348.672 294.4 348.672 282.624 348.16H276.992C264.704 348.16 257.536 348.16 259.584 336.384L287.232 178.176C288.768 169.984 292.352 166.4 297.472 164.864C297.472 164.864 339.456 161.792 371.2 166.4ZM371.2 203.776C387.584 212.992 381.44 241.664 354.304 250.368C346.624 253.44 337.408 253.44 330.752 252.928C331.776 252.928 329.728 252.928 330.752 252.928C323.072 252.928 315.904 253.44 313.856 251.392C311.296 248.32 312.832 241.664 316.416 224.768C316.928 221.184 315.904 227.328 316.416 224.768C322.048 197.12 322.048 197.12 340.992 197.12C356.352 197.12 363.008 199.168 371.2 203.776Z" fill="white"/>
</svg>
